assets/icons/qvision/sticky_note_2.svg

<svg xmlns="http://www.w3.org/2000/svg" enable-background="new 0 0 24 24" height="24" viewBox="0 0 24 24" width="24"><rect fill="none" height="24" width="24"/><path d="M19,3H4.99C3.89,3,3,3.9,3,5l0.01,14c0,1.1,0.89,2,1.99,2h10l6-6V5C21,3.9,20.1,3,19,3z M7,8h10v2H7V8z M12,14H7v-2h5V14z M14,19.5V14h5.5L14,19.5z"/></svg>

<svg width="24" height="24" viewBox="0 0 24 24" fill="none" xmlns="http://www.w3.org/2000/svg">
<g clip-path="url(#clip0_147_4787)">
<path d="M19 3H4.99C3.89 3 3 3.9 3 5L3.01 19C3.01 20.1 3.9 21 5 21H15L21 15V5C21 3.9 20.1 3 19 3ZM7 8H17V10H7V8ZM12 14H7V12H12V14ZM14 19.5V14H19.5L14 19.5Z" fill="#323232"/>
</g>
<defs>
<clipPath id="clip0_147_4787">
<rect width="24" height="24" fill="white"/>
</clipPath>
</defs>
</svg>
